X:1
T: The Banks of Allan
N:
C:
S:
A:
O:
R:
M:6/8
K:A
I:speed 165
%W: A1
% voice 1 (1 lines, 46 notes)
K:A
M:6/8
L:1/16
e2 |c2 d2 c2 c2 B2 A2 c2 e2 e2 e4 a2 f2 a2 a2 e2 a2 a2 f2 a2 a2 e2 a2 a2 |c2 d2 c2 c2 B2 A2 c2 e2 e2 e4 a2 f2 a2 f2 e2 d2 c2 d2 B2 B2 B4 e2 |
%W: A2
% voice 1 (1 lines, 45 notes)
c2 d2 c2 c2 B2 A2 c2 e2 e2 e4 a2 f2 a2 a2 e2 a2 a2 f2 a2 a2 e2 a2 a2 |c2 d2 c2 c2 B2 A2 c2 e2 e2 e4 a2 f2 a2 f2 e2 d2 c2 d2 B2 B2 B4 d2 |
%W: B1
% voice 1 (1 lines, 46 notes)
c2 d2 c2 c2 B2 A2 c2 e2 e2 e4 d2 c2 d2 c2 c2 B2 A2 c2 f2 f2 f2 e2 d2 |c2 d2 e2 B2 c2 d2 A2 B2 c2 c2 B2 A2 f2 a2 f2 e2 d2 c2 d2 B2 B2 B4 d2 |
%W: B2
% voice 1 (1 lines, 45 notes)
c2 d2 c2 c2 B2 A2 c2 e2 e2 e4 d2 c2 d2 c2 c2 B2 A2 c2 f2 f2 f2 e2 d2 |c2 d2 e2 B2 c2 d2 A2 B2 c2 c2 B2 A2 f2 a2 f2 e2 d2 c2 d2 B2 B2 B4 ||
